packages/icons/src/SVG/forward-10.svg

<svg width="12" height="12" viewBox="0 0 12 12" >
<path d="M4.02114 2C1.77224 2 -0.0394977 3.83469 0.000654749 6.07142C0.039806 8.25237 1.82832 10 4.02114 10H8V12L12 9.5L8 7V9H4.02114C2.37653 9 1.03514 7.68928 1.00578 6.05356C0.975662 4.37602 2.33447 3 4.02114 3V2Z" />
<path d="M7.29541 5.25H6.48877V2.03369C6.48877 1.9266 6.48991 1.8195 6.49219 1.7124C6.49447 1.60531 6.49674 1.50049 6.49902 1.39795C6.50358 1.29541 6.50928 1.19743 6.51611 1.104C6.46826 1.15641 6.40902 1.21338 6.33838 1.2749C6.27002 1.33643 6.1971 1.40023 6.11963 1.46631L5.54541 1.92432L5.14209 1.41504L6.62549 0.25293H7.29541V5.25Z" />
<path d="M11.8232 2.74805C11.8232 3.15137 11.7913 3.51253 11.7275 3.83154C11.666 4.14827 11.568 4.41715 11.4336 4.63818C11.2992 4.85921 11.1237 5.02783 10.9072 5.14404C10.6908 5.26025 10.4287 5.31836 10.1211 5.31836C9.736 5.31836 9.41813 5.21696 9.16748 5.01416C8.91683 4.80908 8.73112 4.51514 8.61035 4.13232C8.48958 3.74723 8.4292 3.28581 8.4292 2.74805C8.4292 2.21029 8.48389 1.75 8.59326 1.36719C8.70492 0.982096 8.88493 0.687012 9.1333 0.481934C9.38167 0.276855 9.71094 0.174316 10.1211 0.174316C10.5085 0.174316 10.8275 0.276855 11.0781 0.481934C11.3311 0.684733 11.5179 0.978678 11.6387 1.36377C11.7617 1.74658 11.8232 2.20801 11.8232 2.74805ZM9.23926 2.74805C9.23926 3.1696 9.2666 3.52165 9.32129 3.8042C9.37825 4.08675 9.47168 4.29867 9.60156 4.43994C9.73145 4.57894 9.90462 4.64844 10.1211 4.64844C10.3376 4.64844 10.5107 4.57894 10.6406 4.43994C10.7705 4.30094 10.8639 4.09017 10.9209 3.80762C10.9801 3.52507 11.0098 3.17188 11.0098 2.74805C11.0098 2.32878 10.9813 1.97786 10.9243 1.69531C10.8674 1.41276 10.7739 1.20085 10.644 1.05957C10.5142 0.916016 10.3398 0.844238 10.1211 0.844238C9.90234 0.844238 9.72803 0.916016 9.59814 1.05957C9.47054 1.20085 9.37825 1.41276 9.32129 1.69531C9.2666 1.97786 9.23926 2.32878 9.23926 2.74805Z" />
</svg>

<!-- Generated by IcoMoon.io -->
<svg version="1.1" xmlns="http://www.w3.org/2000/svg" width="12" height="12" viewBox="0 0 12 12">
<title>forward-10</title>
<path fill="#4c505b" d="M4.021 2c-2.249 0-4.061 1.835-4.020 4.071 0.039 2.181 1.828 3.929 4.020 3.929h3.979v2l4-2.5-4-2.5v2h-3.979c-1.645 0-2.986-1.311-3.015-2.946-0.030-1.678 1.329-3.054 3.015-3.054v-1z"></path>
<path fill="#4c505b" d="M7.295 5.25h-0.807v-3.216c0-0.107 0.001-0.214 0.003-0.321s0.005-0.212 0.007-0.314c0.005-0.103 0.010-0.201 0.017-0.294-0.048 0.052-0.107 0.109-0.178 0.171-0.068 0.062-0.141 0.125-0.219 0.191l-0.574 0.458-0.403-0.509 1.483-1.162h0.67v4.997z"></path>
<path fill="#4c505b" d="M11.823 2.748c0 0.403-0.032 0.764-0.096 1.083-0.062 0.317-0.16 0.586-0.294 0.807s-0.31 0.39-0.526 0.506c-0.216 0.116-0.479 0.174-0.786 0.174-0.385 0-0.703-0.101-0.954-0.304-0.251-0.205-0.436-0.499-0.557-0.882-0.121-0.385-0.181-0.847-0.181-1.384s0.055-0.998 0.164-1.381c0.112-0.385 0.292-0.68 0.54-0.885s0.578-0.308 0.988-0.308c0.387 0 0.706 0.103 0.957 0.308 0.253 0.203 0.44 0.497 0.561 0.882 0.123 0.383 0.184 0.844 0.184 1.384zM9.239 2.748c0 0.422 0.027 0.774 0.082 1.056 0.057 0.283 0.15 0.494 0.28 0.636 0.13 0.139 0.303 0.209 0.52 0.209s0.39-0.070 0.52-0.209 0.223-0.35 0.28-0.632c0.059-0.283 0.089-0.636 0.089-1.060 0-0.419-0.028-0.77-0.086-1.053s-0.15-0.494-0.28-0.636c-0.13-0.144-0.304-0.215-0.523-0.215s-0.393 0.072-0.523 0.215c-0.128 0.141-0.22 0.353-0.277 0.636-0.055 0.283-0.082 0.633-0.082 1.053z"></path>
</svg>
